X:1
T:The Old Oak Tree
M:6/8
L:1/8
K:C
 A/2- G3/2| F/2- D3/2 C D/2- E3/2 G| A2 c A2 G|c-D E D2 C| D3- D2 A|\
 d2 d e/2- d3/2 B| c/2- G3/2 B A2 G| F/2- D3/2 Cc-A B| A3- A2 A| d2 d e/2- d3/2 B|\
 c/2- G3/2 B A2 G| F/2- D3/2 Cc-A B| A3- AA-G| E/2- D3/2 CD-E G| A2 c A2 G|\
A-D E D2 C| D3||

